X:1
T:Chej tu
C:Trad. pays Vannetais, fichier abc : Bernard Loffet
L:1/8
Q:340
M:4/4
K:G
 z6 zD | [GG,,]G [GG,]G [G2G,,2] [G2G,2] | [AD,,]A [AD,]A [B2G,,2] [B2G,2] | [GG,,]G [GG,]G [E2C,,2] [E2C,2] | \
 [AD,,]A [AD,]F [G2G,,2] G,D | [GG,,]G [GG,]G [G2G,,2] [G2G,2] | [AD,,]A [AD,]A [B2G,,2] [B2G,2] | \
 [GG,,]G [GG,]G [E2C,,2] [E2C,2] | [AD,,]A [AD,]F [G2G,,2] G,D | [cD,,]c [BD,]A [B2G,,2] G,D | \
 [cD,,]c [BD,]A [B2G,,2] G,2 | [B2G,,2] [d2G,2] [G2G,,2] [GG,]B | [AD,,]G [FD,]G [A2D,,2] [A2D,2] | \
 [B2G,,2] [d2G,2] [G2C,,2] [GC,]B | [A2D,,2] [A2D,2] [G2G,,2] G,2 | [B2G,,2] [d2G,2] [G2G,,2] [GG,]B | \
 [AD,,]G [FD,]G [A2D,,2] [A2D,2] | [B2G,,2] [d2G,2] [G2C,,2] [GC,]B | [A2D,,2] [A2D,2] [G2G,,2] G,2 | \
W:Created with TablEdit http://www.tabledit.com/ by Bernard Loffet
